assets/img/icons/experience/developer.svg

<svg width="25" height="25" viewBox="0 0 25 25" fill="none" xmlns="http://www.w3.org/2000/svg">
<path d="M22.5 3.75H11.25V4.58333H22.5V3.75Z" fill="black"/>
<path d="M18.3333 5.41663H11.25V6.24996H18.3333V5.41663Z" fill="black"/>
<path d="M18.3333 7.08337H11.25V7.91671H18.3333V7.08337Z" fill="black"/>
<path d="M22.5 2.08337H14.5833V2.91671H22.5V2.08337Z" fill="black"/>
<path d="M13.75 2.08337H12.9167V2.91671H13.75V2.08337Z" fill="black"/>
<path d="M12.9166 16.6666H12.0833V17.5H12.9166V16.6666Z" fill="black"/>
<path d="M6.96124 2.79461L6.37207 2.20544L5.53874 3.03878C5.37608 3.20149 5.37608 3.46524 5.53874 3.62794L6.37207 4.46128L6.96124 3.87211L6.42249 3.33336L6.96124 2.79461Z" fill="black"/>
<path d="M10.2946 3.03878L9.46124 2.20544L8.87207 2.79461L9.41082 3.33336L8.87207 3.87211L9.46124 4.46128L10.2946 3.62794C10.4572 3.46524 10.4572 3.20149 10.2946 3.03878Z" fill="black"/>
<path d="M7.93836 1.95109L7.10425 4.45105L7.89435 4.71467L8.72846 2.21471L7.93836 1.95109Z" fill="black"/>
<path d="M21.6667 12.9167V9.58333H20.8334V12.9167H20V8.75H19.1667V12.9167H18.3334V10.8333H17.5V12.9167H16.6667V10.4167H15.8334V12.9167H15V11.25H14.1667V12.9167H13.3334V13.75H22.5V12.9167H21.6667Z" fill="black"/>
<path d="M22.0834 0H2.91669C1.53653 0.00135417 0.418041 1.11984 0.416687 2.5V10.6775V10.6812V15.4167V16.6667C0.418041 18.0468 1.53653 19.1653 2.91669 19.1667H8.07585L6.40919 22.5H4.16669C3.47632 22.5 2.91669 23.0596 2.91669 23.75C2.91669 24.4404 3.47632 25 4.16669 25H20.8334C21.5237 25 22.0834 24.4404 22.0834 23.75C22.0834 23.0596 21.5237 22.5 20.8334 22.5H18.5909L16.9242 19.1667H22.0834C23.4635 19.1653 24.582 18.0468 24.5834 16.6667V2.5C24.582 1.11984 23.4635 0.00135417 22.0834 0ZM1.25002 5.8625L2.1971 6.99C2.27627 7.08432 2.39315 7.13875 2.51627 7.13875H3.79169C3.91481 7.13875 4.03169 7.08432 4.11085 6.99L5.05835 5.8625L5.99335 6.16625L6.09669 7.63417C6.10523 7.75693 6.16762 7.86964 6.2671 7.94208L7.29919 8.69208C7.39903 8.76417 7.52549 8.7887 7.64502 8.75917L9.07544 8.40375L9.65377 9.19917L8.87419 10.4492C8.8096 10.554 8.79466 10.6819 8.83335 10.7987L9.22794 12.0117C9.26591 12.1286 9.35356 12.2229 9.46752 12.2692L10.8334 12.8229V13.8062L9.46669 14.36C9.35247 14.406 9.26466 14.5006 9.2271 14.6179L9.1021 15H6.70169C7.63544 13.045 6.80752 10.7032 4.85252 9.76943C3.70424 9.22099 2.36122 9.26359 1.25002 9.88375V5.8625ZM1.25002 10.875C2.59773 9.82359 4.54262 10.0638 5.59398 11.4116C6.40575 12.4521 6.46841 13.8929 5.75002 15H1.25002V10.875ZM20.8334 23.3333C21.0635 23.3333 21.25 23.5199 21.25 23.75C21.25 23.9801 21.0635 24.1667 20.8334 24.1667H4.16669C3.93658 24.1667 3.75002 23.9801 3.75002 23.75C3.75002 23.5199 3.93658 23.3333 4.16669 23.3333H20.8334ZM17.6592 22.5H7.34085L9.00752 19.1667H15.9925L17.6592 22.5ZM23.75 16.6667C23.75 17.5871 23.0038 18.3333 22.0834 18.3333H2.91669C1.99622 18.3333 1.25002 17.5871 1.25002 16.6667V15.8333H5.96752H5.97127H23.75V16.6667ZM23.75 15H10.1063L11.4067 14.4729C11.5638 14.4092 11.6666 14.2566 11.6667 14.0871V12.5417C11.6667 12.372 11.5639 12.2192 11.4067 12.1554L9.95835 11.5696L9.68419 10.7258L10.51 9.40083C10.5996 9.25688 10.593 9.07302 10.4934 8.93583L9.58502 7.68583C9.48528 7.54849 9.31226 7.48536 9.14752 7.52625L7.63252 7.90125L6.91669 7.38125L6.8071 5.82708C6.79518 5.65766 6.68158 5.5124 6.52002 5.46L5.05127 4.9825C4.88966 4.93104 4.71299 4.98182 4.60335 5.11125L3.60044 6.305H2.71169L1.70835 5.11125C1.59867 4.98167 1.42174 4.93083 1.26002 4.9825L1.25002 4.98625V2.5C1.25002 1.57953 1.99622 0.833333 2.91669 0.833333H22.0834C23.0038 0.833333 23.75 1.57953 23.75 2.5V15Z" fill="black"/>
</svg>

<svg width="25" height="25" fill="none" xmlns="http://www.w3.org/2000/svg"><path d="M22.5 3.75H11.25v.833H22.5V3.75Zm-4.167 1.667H11.25v.833h7.083v-.833Zm0 1.666H11.25v.834h7.083v-.834Zm4.167-5h-7.917v.834H22.5v-.834Zm-8.75 0h-.833v.834h.833v-.834Zm-.833 14.584h-.834v.833h.834v-.833ZM6.961 2.795l-.589-.59-.833.834a.417.417 0 0 0 0 .589l.833.833.59-.589-.54-.539.54-.538Zm3.334.244-.834-.834-.589.59.539.538-.539.54.59.588.833-.833a.417.417 0 0 0 0-.59ZM7.938 1.951l-.834 2.5.79.264.834-2.5-.79-.264Zm13.729 10.966V9.583h-.834v3.334H20V8.75h-.833v4.167h-.834v-2.084H17.5v2.084h-.833v-2.5h-.834v2.5H15V11.25h-.833v1.667h-.834v.833H22.5v-.833h-.833Z" fill="#000"/><path d="M22.083 0H2.917a2.502 2.502 0 0 0-2.5 2.5v14.167a2.503 2.503 0 0 0 2.5 2.5h5.159L6.409 22.5H4.167a1.25 1.25 0 1 0 0 2.5h16.666a1.25 1.25 0 0 0 0-2.5h-2.242l-1.667-3.333h5.16a2.503 2.503 0 0 0 2.5-2.5V2.5a2.503 2.503 0 0 0-2.5-2.5ZM1.25 5.862l.947 1.128a.42.42 0 0 0 .32.149h1.275c.123 0 .24-.055.319-.149l.947-1.128.935.304.104 1.468c.008.123.07.236.17.308l1.032.75c.1.072.226.097.346.067l1.43-.355.579.795-.78 1.25a.416.416 0 0 0-.04.35l.394 1.213a.417.417 0 0 0 .24.257l1.365.554v.983l-1.366.554a.414.414 0 0 0-.24.258L9.102 15h-2.4A3.923 3.923 0 0 0 1.25 9.884V5.862Zm0 5.013A3.095 3.095 0 0 1 5.75 15h-4.5v-4.125Zm19.583 12.458a.417.417 0 0 1 0 .834H4.167a.417.417 0 0 1 0-.834h16.666ZM17.66 22.5H7.341l1.667-3.333h6.985l1.666 3.333Zm6.091-5.833c0 .92-.746 1.666-1.667 1.666H2.917c-.92 0-1.667-.746-1.667-1.666v-.834h22.5v.834Zm0-1.667H10.106l1.3-.527a.417.417 0 0 0 .26-.386v-1.545a.417.417 0 0 0-.26-.387l-1.448-.585-.274-.844.826-1.325a.417.417 0 0 0-.017-.465l-.908-1.25a.417.417 0 0 0-.437-.16l-1.515.375-.716-.52-.11-1.554a.417.417 0 0 0-.287-.367l-1.469-.478a.42.42 0 0 0-.448.13L3.6 6.304h-.888L1.708 5.111a.42.42 0 0 0-.448-.128l-.01.003V2.5c0-.92.746-1.667 1.667-1.667h19.166c.92 0 1.667.747 1.667 1.667V15Z" fill="#000"/></svg>
